icon-themes/colibre_svg/cmd/sc_photoalbumdialog.svg

<svg viewBox="0 0 16 16" xmlns="http://www.w3.org/2000/svg"><path d="m1 1v11h1v-10h10v-1zm2 2v12h12v-12z" fill="#fff"/><path d="m0 0v13h2v3h14v-14h-3v-2zm1 1h11v1h-10v10h-1zm2 2h12v12h-12z" fill="#808080"/><path d="m6.5 4c-1.3807119 0-2.5 1.1192881-2.5 2.5s1.1192881 2.5 2.5 2.5 2.5-1.1192881 2.5-2.5-1.1192881-2.5-2.5-2.5z" fill="#eac282"/><path d="m3 15 5-4 2 1.593356 2-2.593356 3 2v3z" fill="#4d82b8"/></svg>

<svg xmlns="http://www.w3.org/2000/svg" viewBox="0 0 16 16">
  <path
     style="fill:#ffffff"
     d="M 1 1 L 1 12 L 2 12 L 2 2 L 12 2 L 12 1 L 1 1 z M 3 3 L 3 15 L 15 15 L 15 3 L 3 3 z "
     />
  <path
     style="fill:#808080"
     d="M 0 0 L 0 13 L 2 13 L 2 16 L 16 16 L 16 2 L 13 2 L 13 0 L 0 0 z M 1 1 L 12 1 L 12 2 L 2 2 L 2 12 L 1 12 L 1 1 z M 3 3 L 15 3 L 15 15 L 3 15 L 3 3 z "
     />
  <path
     d="M 6.5,4 C 5.1192881,4 4,5.1192881 4,6.5 4,7.8807119 5.1192881,9 6.5,9 7.8807119,9 9,7.8807119 9,6.5 9,5.1192881 7.8807119,4 6.5,4 Z"
     style="fill:#eac282"
     />
  <path
     d="M 3,15 8,11 10,12.593356 12,10 l 3,2 v 3 z"
     style="fill:#4d82b8"
     />
</svg>
